packages/foundations/assets/icons/functional/images/devices/camera_16.svg

<svg width="16" height="16" viewBox="0 0 16 16" fill="none" xmlns="http://www.w3.org/2000/svg">
<g clip-path="url(#clip0_185_767)">
<path fill-rule="evenodd" clip-rule="evenodd" d="M9.59998 3.2C10.1036 3.2 10.5778 3.43711 10.88 3.84L11.6 4.8H12.8C13.6435 4.8 14.4 5.56977 14.4 6.4V11.2C14.4 12.0837 13.6836 12.8 12.8 12.8H3.19998C2.31632 12.8 1.59998 12.0837 1.59998 11.2V6.40475C1.59998 5.52295 2.31343 4.80738 3.19522 4.80476L4.39918 4.8008L5.11998 3.84C5.39467 3.47373 5.94307 3.2 6.39998 3.2H9.59998ZM9.59998 4.8H6.39998L5.20087 6.39881L3.19998 6.40475V11.2H12.8V6.4H10.8L9.59998 4.8ZM7.99998 6.8C8.88363 6.8 9.59998 7.51634 9.59998 8.4C9.59998 9.28365 8.88363 10 7.99998 10C7.11632 10 6.39998 9.28365 6.39998 8.4C6.39998 7.51634 7.11632 6.8 7.99998 6.8Z" fill="#1A1C1F"/>
</g>
<defs>
<clipPath id="clip0_185_767">
<rect width="16" height="16" fill="white"/>
</clipPath>
</defs>
</svg>

<svg xmlns="http://www.w3.org/2000/svg" width="16" height="16" fill="none"><g clip-path="url(#a)"><path fill="#1A1C1F" fill-rule="evenodd" d="M9.6 3.2a1.6 1.6 0 0 1 1.28.64l.72.96h1.2c.843 0 1.6.77 1.6 1.6v4.8a1.6 1.6 0 0 1-1.6 1.6H3.2a1.6 1.6 0 0 1-1.6-1.6V6.405a1.6 1.6 0 0 1 1.595-1.6L4.4 4.8l.721-.961c.275-.366.823-.64 1.28-.64zm0 1.6H6.4L5.2 6.399l-2 .006V11.2h9.6V6.4h-2zM8 6.8A1.6 1.6 0 1 1 8 10a1.6 1.6 0 0 1 0-3.2" clip-rule="evenodd"/></g><defs><clipPath id="a"><path fill="#fff" d="M0 0h16v16H0z"/></clipPath></defs></svg>
